X:46
T:Swallows Tail Jig
R:Jig
M:6/8
L:1/8
K:D
Q:3/8=110
E/F/ | "Em" GEE  BEE | GEG  BAG | "D" FDD      ADD | dcd "Bm" AGF |
       "Em" GEE  BEE | GEG  B2c | "D" dcd "Bm" AGF | "Em" GEE  E2 :|
   B | "Em" Bcd e2 f | e2 f edB | Bcd         e2 f | edB "D" d2 c |
       "Em" Bcd e2 f | e2 f edB | "D" dcd "Bm" AGF | "Em" GEE  E2 :|
%%text 2015-01-08
